X:1
T:Fili mi, ne neglexeris
T:Antoine Brumel
T:Source : Bicinia---Tomus I---Wittemberg---G.Rhau---1545. Editor : André Vierendeels (13/05/17).
T:Notes : Original clefs : C3 (C2 from m23 to m 33), F3 Original note values have been halved Editorial accidentals above the staff Dotted brackets indicate black notes
T:Fili mi, ne neglexeris
T:©
T:©
T:©
C:Antoine Brumel
Z:©
%%score [ 1 2 ]
L:1/8
Q:1/4=90
M:2/2
K:F
V:1 treble-8 nm="Tenor" snm="T"
V:2 bass nm="Bass" snm="B"
V:1
 c6 BA | B4 A4- | A2 GF G4 | F4 z2 c2- | cB B2 AGAB | c2 d2 dc c2- | c2 B2 c4 | z2 c2 d2 f2- | %8
w: Fi- * *|li _|_ _ _ _|mi, ne|_ _ ne- gle- * * *||* xe- ris|cor- rep- ti-|
 f2 e2 f4- | f8- | f4 e3 f | ga g3 fed | e4 d4 | z2 c2 d2 e2 | f4 g4 | f2 f2 fedc | d4 c4 | %17
w: * o- nem|_|* Do- *||mi- ni,|ne- que de-|si- cias|ab e- * * * *|o cum|
 c2 B3 AGF | G4 z2 F2- | FGAB c2 d2- | d2 c2 d4- | d8- | d4 z2 B2- | Bcde f2 g2- | g2 f2 g4- | %25
w: ar- gue- * * *|ris, fla-|* * * * * gel-|* * lat|_|* au-||* tem o-|
 g8- | g4 e2 c2- | cdef g2 a2- | a2 g2 a4- | a8- | a4 a4 | z2 a3 g g2- | g2 f2 g4 | e2 c2 f4 | %34
w: |||||* mnem|fi- * *|* li- um|quem re- *|
 e2 d3 c c2- | c2 B2 c4 | A2 F2 B4 | A2 G3 F F2- | F2 E2 FGAB | c2 FG ABcd | ef g3 f f2- | %41
w: |* ci- pit,|re- * *||* ci- pit, _ _ _|_ re- * * * * *||
 f2 e2 f4- | f8 |] %43
w: * ci- pit.|_|
V:2
 z8 | z4 C4- | C2 B,A, B,4 | A,6 G,F, | G,4 F,3 D, | E,2 F,2 G,2 E,2 | D,4 z2 C,2 | %7
w: |Fi-||li _ _|_ mi, _|_ ne- gle- xe-|ris cor|
 D,2 F,3 G,A,F, | G,4 F,3 G, | A,F, B,2 A,G,A,B, | F,G,A,B, C4 | C2 C,2 C,4- | C,4 G,3 F, | %13
w: rep- ti- * * *|o- nem _|_ _ Do- * * * *|Do- * * * *|* mi _|ni, ne- *|
 D,E, F,3 E,D,C, | D,4 C,2 G,A, | B,C D3 C C2- | C2 B,2 C2 C,D, | E,F, G,3 F, F,2- | F,2 E,2 F,4 | %19
w: que _ de- * * *|fi- cias ab- *||* e- o cum _|_ _ ar- * que-|* * ris,|
 D,2 F,4 E,D, | E,4 D,2 B,,2- | B,,C,D,E, F,2 G,2- | G,2 F,2 G,3 F, | G,A, B,4 A,G, | A,4 G,2 E,2 | %25
w: ar- gue- * *|* ris, fla-|* * * * * gel-|* * lat _|_ _ au- * *|* tem, au-|
 E,F,G,A, B,2 C2- | C2 B,2 C4 | A,2 C4 A,G, | B,4 A,2 F,2- | F,G,A,B, C2 D2- | D2 C2 D2 C2 | %31
w: |* * tem-|o- * * *|* mnem fi-||* li- um _|
 A,B, C3 B,A,G, | A,4 G,2 C2- | CB,A,G, F,2 A,2 | G,2 F,2 E,2 C,2 | D,4 C,2 F,2- | %36
w: _ _ _ _ _ _|quem re- *|||ci- pit, e-|
 F,E,D,C, B,,C,D,E, | F,2 E,2 F,4 | G,4 z2 F,G, | A,B, C2 F,G,A,B, | C3 A, C2 A,2 | G,4 F,4- | %42
w: |* * ci-|pit, re- *|||ci- pit.|
 F,8 |] %43
w: _|

